src/assets/media/album.svg

<?xml version="1.0" encoding="UTF-8"?>
<svg id="Layer_1" xmlns="http://www.w3.org/2000/svg" xmlns:xlink="http://www.w3.org/1999/xlink" version="1.1" viewBox="0 0 24 24">
  <!-- Generator: Adobe Illustrator 29.2.1, SVG Export Plug-In . SVG Version: 2.1.0 Build 116)  -->
  <defs>
    <style>
      .st0 {
        fill: #2d2e83;
      }
    </style>
  </defs>
  <g id="icons">
    <g id="block">
      <path class="st0" d="M8,2h-4c-1.1,0-2,.9-2,2v4c0,1.1.9,2,2,2h4c1.1,0,2-.9,2-2v-4c0-1.1-.9-2-2-2Z"/>
      <path class="st0" d="M20,2h-4c-1.1,0-2,.9-2,2v4c0,1.1.9,2,2,2h4c1.1,0,2-.9,2-2v-4c0-1.1-.9-2-2-2Z"/>
      <path class="st0" d="M8,14h-4c-1.1,0-2,.9-2,2v4c0,1.1.9,2,2,2h4c1.1,0,2-.9,2-2v-4c0-1.1-.9-2-2-2Z"/>
      <path class="st0" d="M20,14h-4c-1.1,0-2,.9-2,2v4c0,1.1.9,2,2,2h4c1.1,0,2-.9,2-2v-4c0-1.1-.9-2-2-2Z"/>
    </g>
  </g>
</svg>

<?xml version="1.0" ?><svg style="enable-background:new 0 0 24 24;" version="1.1" viewBox="0 0 24 24" xml:space="preserve" xmlns="http://www.w3.org/2000/svg" xmlns:xlink="http://www.w3.org/1999/xlink"><g id="info"/><g id="icons"><g id="block"><path d="M8,2H4C2.9,2,2,2.9,2,4v4c0,1.1,0.9,2,2,2h4c1.1,0,2-0.9,2-2V4C10,2.9,9.1,2,8,2z"/><path d="M20,2h-4c-1.1,0-2,0.9-2,2v4c0,1.1,0.9,2,2,2h4c1.1,0,2-0.9,2-2V4C22,2.9,21.1,2,20,2z"/><path d="M8,14H4c-1.1,0-2,0.9-2,2v4c0,1.1,0.9,2,2,2h4c1.1,0,2-0.9,2-2v-4C10,14.9,9.1,14,8,14z"/><path d="M20,14h-4c-1.1,0-2,0.9-2,2v4c0,1.1,0.9,2,2,2h4c1.1,0,2-0.9,2-2v-4C22,14.9,21.1,14,20,14z"/></g></g></svg>
